svgs/phantom_rose.svg

<svg width="192" height="192" viewBox="0 0 192 192" fill="none" xmlns="http://www.w3.org/2000/svg">
<path d="M61.8514 96C61.8514 86.3336 60.2319 76.7842 58.4639 69.2394C56.3392 60.172 54 54 54 54C54 54 60.172 56.3392 69.2394 58.4639C76.7842 60.2319 86.3335 61.8514 96 61.8514M130.149 96C130.149 86.3336 131.768 76.7842 133.536 69.2394C135.661 60.172 138 54 138 54C138 54 131.828 56.3392 122.761 58.4639C115.216 60.2319 105.666 61.8514 96 61.8514M96 61.8514L106.819 85.1813L130.149 96M96 61.8514L85.1813 85.1813L61.8514 96M96 130.149C105.666 130.149 115.216 131.768 122.761 133.536C131.828 135.661 138 138 138 138C138 138 135.661 131.828 133.536 122.761C131.768 115.216 130.149 105.666 130.149 96M130.149 96L106.819 106.819L96 130.149M58.4639 122.761C56.3392 131.828 54 138 54 138C54 138 60.172 135.661 69.2394 133.536C76.7842 131.768 86.3336 130.149 96 130.149M96 130.149L85.1813 106.819L61.8514 96M61.8514 96C61.8514 105.666 60.2319 115.216 58.4639 122.761M58.4639 69.2394C41.9122 84.1332 22 96 22 96C22 96 41.9122 107.867 58.4639 122.761M69.2394 58.4639C84.1331 41.9121 96 22 96 22C96 22 107.867 41.9122 122.761 58.4639M133.536 69.2394C150.088 84.1331 170 96 170 96C170 96 150.088 107.867 133.536 122.761M122.761 133.536C107.867 150.088 96 170 96 170C96 170 84.1332 150.088 69.2394 133.536" stroke="black" stroke-width="12" stroke-linejoin="round"/>
</svg>

<svg xmlns="http://www.w3.org/2000/svg" width="192" height="192" fill="none" viewBox="0 0 192 192"><path stroke="#000" stroke-linejoin="round" stroke-width="12" d="M61.851 96c0-9.666-1.62-19.216-3.387-26.76C56.339 60.171 54 54 54 54s6.172 2.34 15.24 4.464C76.783 60.232 86.333 61.85 96 61.85M130.149 96c0-9.666 1.619-19.216 3.387-26.76C135.661 60.171 138 54 138 54s-6.172 2.34-15.239 4.464C115.216 60.232 105.666 61.85 96 61.85m0 0 10.819 23.33L130.149 96M96 61.851l-10.819 23.33L61.851 96M96 130.149c9.666 0 19.216 1.619 26.761 3.387C131.828 135.661 138 138 138 138s-2.339-6.172-4.464-15.239c-1.768-7.545-3.387-17.095-3.387-26.761m0 0-23.33 10.819L96 130.149m-37.536-7.388C56.339 131.828 54 138 54 138s6.172-2.339 15.24-4.464c7.544-1.768 17.094-3.387 26.76-3.387m0 0-10.819-23.33L61.851 96m0 0c0 9.666-1.62 19.216-3.387 26.761m0-53.522C41.912 84.133 22 96 22 96s19.912 11.867 36.464 26.761m10.775-64.297C84.133 41.912 96 22 96 22s11.867 19.912 26.761 36.464m10.775 10.775C150.088 84.133 170 96 170 96s-19.912 11.867-36.464 26.761m-10.775 10.775C107.867 150.088 96 170 96 170s-11.867-19.912-26.76-36.464"/></svg>
